static/logos/storybook-wordmark-color.svg

<svg width="100" height="20" viewBox="0 0 100 20" fill="none" xmlns="http://www.w3.org/2000/svg">
<g clip-path="url(#clip0_1_903)">
<path fill-rule="evenodd" clip-rule="evenodd" d="M26.6429 15.8314C25.7896 15.8314 24.9683 15.7167 24.1789 15.4874C23.3896 15.2581 22.7336 14.9407 22.2109 14.5354L23.0109 12.7594C24.0989 13.5167 25.3203 13.8954 26.6749 13.8954C27.3789 13.8954 27.9203 13.7807 28.2989 13.5514C28.6776 13.3221 28.8669 13.0047 28.8669 12.5994C28.8669 12.2367 28.6936 11.9541 28.3469 11.7514C28.0003 11.5487 27.3843 11.3514 26.4989 11.1594C25.5069 10.9567 24.7149 10.7114 24.1229 10.4234C23.5309 10.1354 23.0989 9.78075 22.8269 9.35945C22.5549 8.9381 22.4189 8.4181 22.4189 7.79945C22.4189 7.11675 22.6083 6.50875 22.9869 5.97545C23.3656 5.4421 23.8963 5.02345 24.5789 4.71943C25.2616 4.41542 26.0509 4.26343 26.9469 4.26343C27.7469 4.26343 28.5176 4.38076 29.2589 4.61542C30.0003 4.85009 30.5896 5.16475 31.0269 5.55945L30.2269 7.33545C29.1923 6.5781 28.1043 6.19945 26.9629 6.19945C26.3123 6.19945 25.8003 6.32475 25.4269 6.57545C25.0536 6.8261 24.8669 7.1701 24.8669 7.60745C24.8669 7.86345 24.9389 8.0741 25.0829 8.23945C25.2269 8.40475 25.4669 8.55145 25.8029 8.67945C26.1389 8.80745 26.6163 8.94075 27.2349 9.07945C28.6856 9.39945 29.7283 9.8101 30.3629 10.3114C30.9976 10.8127 31.3149 11.5061 31.3149 12.3914C31.3149 13.4581 30.9043 14.2981 30.0829 14.9114C29.2616 15.5247 28.1149 15.8314 26.6429 15.8314ZM37.1069 14.0394C37.3523 14.0394 37.6083 14.0234 37.8749 13.9914L37.7469 15.7514C37.4376 15.7941 37.1283 15.8154 36.8189 15.8154C35.6243 15.8154 34.7523 15.5541 34.2029 15.0314C33.6536 14.5087 33.3789 13.7141 33.3789 12.6474V9.63945H31.8909V7.83145H33.3789V5.52745H35.7949V7.83145H37.7629V9.63945H35.7949V12.6314C35.7949 13.5701 36.2323 14.0394 37.1069 14.0394ZM42.7229 15.8154C41.8909 15.8154 41.1603 15.6474 40.5309 15.3114C39.9016 14.9754 39.4163 14.5007 39.0749 13.8874C38.7336 13.2741 38.5629 12.5514 38.5629 11.7194C38.5629 10.8874 38.7336 10.1647 39.0749 9.55145C39.4163 8.9381 39.9016 8.4661 40.5309 8.13545C41.1603 7.80475 41.8909 7.63945 42.7229 7.63945C43.5549 7.63945 44.2856 7.80475 44.9149 8.13545C45.5443 8.4661 46.0296 8.9381 46.3709 9.55145C46.7123 10.1647 46.8829 10.8874 46.8829 11.7194C46.8829 12.5514 46.7123 13.2741 46.3709 13.8874C46.0296 14.5007 45.5443 14.9754 44.9149 15.3114C44.2856 15.6474 43.5549 15.8154 42.7229 15.8154ZM42.7229 13.9754C43.8963 13.9754 44.4829 13.2234 44.4829 11.7194C44.4829 10.9621 44.3309 10.3967 44.0269 10.0234C43.7229 9.6501 43.2883 9.46345 42.7229 9.46345C41.5496 9.46345 40.9629 10.2154 40.9629 11.7194C40.9629 13.2234 41.5496 13.9754 42.7229 13.9754ZM53.5709 9.62345L52.2109 9.76745C51.5389 9.83145 51.0644 10.0207 50.7869 10.3354C50.5094 10.6501 50.3709 11.0687 50.3709 11.5914V15.6874H47.9549V7.83145H50.2749V9.15945C50.6694 8.25275 51.4854 7.75675 52.7229 7.67145L53.4269 7.62345L53.5709 9.62345ZM60.5909 7.84745H62.9589L58.2229 18.5674H55.7749L57.2789 15.2554L54.0469 7.84745H56.5589L58.5429 12.8394L60.5909 7.84745ZM68.5589 7.63945C69.2414 7.63945 69.8444 7.80475 70.3669 8.13545C70.8894 8.4661 71.2974 8.9381 71.5909 9.55145C71.8844 10.1647 72.0309 10.8767 72.0309 11.6874C72.0309 12.4981 71.8844 13.2154 71.5909 13.8394C71.2974 14.4634 70.8869 14.9487 70.3589 15.2954C69.8309 15.6421 69.2309 15.8154 68.5589 15.8154C68.0149 15.8154 67.5244 15.7007 67.0869 15.4714C66.6494 15.2421 66.3134 14.9247 66.0789 14.5194V15.6874H63.6949V4.40742H66.1109V8.88745C66.3454 8.49275 66.6789 8.1861 67.1109 7.96745C67.5429 7.74875 68.0254 7.63945 68.5589 7.63945ZM67.8549 13.9754C68.4204 13.9754 68.8574 13.7754 69.1669 13.3754C69.4764 12.9754 69.6309 12.4127 69.6309 11.6874C69.6309 10.9727 69.4764 10.4261 69.1669 10.0474C68.8574 9.66875 68.4204 9.47945 67.8549 9.47945C67.2894 9.47945 66.8524 9.6741 66.5429 10.0634C66.2334 10.4527 66.0789 11.0047 66.0789 11.7194C66.0789 12.4447 66.2334 13.0021 66.5429 13.3914C66.8524 13.7807 67.2894 13.9754 67.8549 13.9754ZM77.2789 15.8154C76.4469 15.8154 75.7164 15.6474 75.0869 15.3114C74.4574 14.9754 73.9724 14.5007 73.6309 13.8874C73.2894 13.2741 73.1189 12.5514 73.1189 11.7194C73.1189 10.8874 73.2894 10.1647 73.6309 9.55145C73.9724 8.9381 74.4574 8.4661 75.0869 8.13545C75.7164 7.80475 76.4469 7.63945 77.2789 7.63945C78.1109 7.63945 78.8414 7.80475 79.4709 8.13545C80.1004 8.4661 80.5854 8.9381 80.9269 9.55145C81.2684 10.1647 81.4389 10.8874 81.4389 11.7194C81.4389 12.5514 81.2684 13.2741 80.9269 13.8874C80.5854 14.5007 80.1004 14.9754 79.4709 15.3114C78.8414 15.6474 78.1109 15.8154 77.2789 15.8154ZM77.2789 13.9754C78.4524 13.9754 79.0389 13.2234 79.0389 11.7194C79.0389 10.9621 78.8869 10.3967 78.5829 10.0234C78.2789 9.6501 77.8444 9.46345 77.2789 9.46345C76.1054 9.46345 75.5189 10.2154 75.5189 11.7194C75.5189 13.2234 76.1054 13.9754 77.2789 13.9754ZM86.2869 15.8154C85.4549 15.8154 84.7244 15.6474 84.0949 15.3114C83.4654 14.9754 82.9804 14.5007 82.6389 13.8874C82.2974 13.2741 82.1269 12.5514 82.1269 11.7194C82.1269 10.8874 82.2974 10.1647 82.6389 9.55145C82.9804 8.9381 83.4654 8.4661 84.0949 8.13545C84.7244 7.80475 85.4549 7.63945 86.2869 7.63945C87.1189 7.63945 87.8494 7.80475 88.4789 8.13545C89.1084 8.4661 89.5934 8.9381 89.9349 9.55145C90.2764 10.1647 90.4469 10.8874 90.4469 11.7194C90.4469 12.5514 90.2764 13.2741 89.9349 13.8874C89.5934 14.5007 89.1084 14.9754 88.4789 15.3114C87.8494 15.6474 87.1189 15.8154 86.2869 15.8154ZM86.2869 13.9754C87.4604 13.9754 88.0469 13.2234 88.0469 11.7194C88.0469 10.9621 87.8949 10.3967 87.5909 10.0234C87.2869 9.6501 86.8524 9.46345 86.2869 9.46345C85.1134 9.46345 84.5269 10.2154 84.5269 11.7194C84.5269 13.2234 85.1134 13.9754 86.2869 13.9754ZM100.003 15.6874H97.0429L94.0349 12.1834V15.6874H91.6189V4.40742H94.0349V11.1914L96.9309 7.84745H99.8109L96.5149 11.5914L100.003 15.6874Z" fill="#333333"/>
<mask id="mask0_1_903" style="mask-type:alpha" maskUnits="userSpaceOnUse" x="0" y="0" width="17" height="20">
<path d="M0.62028 18.4293L0.000720094 1.92089C-0.0197415 1.37568 0.398305 0.913625 0.942835 0.87959L14.9844 0.00199235C15.5387 -0.0326494 16.0161 0.388591 16.0508 0.942855C16.0521 0.96374 16.0527 0.98466 16.0527 1.00558V18.9944C16.0527 19.5498 15.6025 20 15.0471 20C15.0321 20 15.0171 19.9997 15.0021 19.999L1.58001 19.3962C1.05727 19.3727 0.639905 18.9522 0.62028 18.4293Z" fill="white"/>
</mask>
<g mask="url(#mask0_1_903)">
<path d="M0.62028 18.4293L0.000720094 1.92089C-0.0197415 1.37568 0.398305 0.913625 0.942835 0.87959L14.9844 0.00199235C15.5387 -0.0326494 16.0161 0.388591 16.0508 0.942855C16.0521 0.96374 16.0527 0.98466 16.0527 1.00558V18.9944C16.0527 19.5498 15.6025 20 15.0471 20C15.0321 20 15.0171 19.9997 15.0021 19.999L1.58001 19.3962C1.05727 19.3727 0.639905 18.9522 0.62028 18.4293Z" fill="#FF4785"/>
<path d="M11.8517 2.45832L11.9476 0.151512L13.8759 0L13.959 2.37893C13.9619 2.46172 13.8971 2.53118 13.8143 2.53408C13.7789 2.53531 13.7441 2.52395 13.7163 2.502L12.9726 1.9162L12.0922 2.58405C12.0262 2.63412 11.9321 2.62121 11.882 2.55521C11.861 2.52742 11.8502 2.49316 11.8517 2.45832Z" fill="white"/>
<path d="M9.38633 7.5382C9.38633 7.9294 12.0215 7.7419 12.3753 7.4671C12.3753 4.80302 10.9458 3.40308 8.32818 3.40308C5.71053 3.40308 4.2439 4.8248 4.2439 6.9574C4.2439 10.6716 9.25638 10.7427 9.25638 12.7687C9.25638 13.3374 8.97793 13.675 8.36528 13.675C7.56698 13.675 7.25138 13.2673 7.28853 11.8812C7.28853 11.5805 4.2439 11.4867 4.15108 11.8812C3.91471 15.2404 6.00758 16.2093 8.40243 16.2093C10.723 16.2093 12.5424 14.9724 12.5424 12.7331C12.5424 8.7523 7.45563 8.85895 7.45563 6.8863C7.45563 6.08655 8.04968 5.97995 8.40243 5.97995C8.77373 5.97995 9.44203 6.0454 9.38633 7.5382Z" fill="white"/>
</g>
</g>
<defs>
<clipPath id="clip0_1_903">
<rect width="100" height="20" fill="white"/>
</clipPath>
</defs>
</svg>

<svg xmlns="http://www.w3.org/2000/svg" width="320" height="64" fill="none" viewBox="0 0 100 20"><g clip-path="url(#a)"><path fill="#333" fill-rule="evenodd" d="M26.643 15.831a8.788 8.788 0 0 1-2.464-.344c-.79-.229-1.445-.546-1.968-.952l.8-1.776c1.088.758 2.31 1.136 3.664 1.136.704 0 1.245-.114 1.624-.344.379-.229.568-.546.568-.952 0-.362-.173-.645-.52-.848-.347-.202-.963-.4-1.848-.592-.992-.202-1.784-.448-2.376-.736-.592-.288-1.024-.642-1.296-1.064-.272-.42-.408-.94-.408-1.56 0-.682.19-1.29.568-1.824.379-.533.91-.952 1.592-1.256.683-.304 1.472-.456 2.368-.456.8 0 1.57.118 2.312.352.741.235 1.33.55 1.768.944l-.8 1.776C29.192 6.578 28.104 6.2 26.963 6.2c-.65 0-1.163.126-1.536.376-.373.251-.56.595-.56 1.032 0 .256.072.467.216.632.144.166.384.312.72.44.336.128.813.262 1.432.4 1.45.32 2.493.731 3.128 1.232.635.502.952 1.195.952 2.08 0 1.067-.41 1.907-1.232 2.52-.821.614-1.968.92-3.44.92Zm10.464-1.792c.245 0 .501-.016.768-.048l-.128 1.76c-.31.043-.619.064-.928.064-1.195 0-2.067-.26-2.616-.784-.55-.522-.824-1.317-.824-2.384V9.64H31.89V7.831h1.488V5.527h2.416v2.304h1.968V9.64h-1.968v2.992c0 .94.437 1.408 1.312 1.408Zm5.616 1.776c-.832 0-1.563-.168-2.192-.504a3.535 3.535 0 0 1-1.456-1.424c-.341-.613-.512-1.336-.512-2.168 0-.832.17-1.554.512-2.168a3.484 3.484 0 0 1 1.456-1.416c.63-.33 1.36-.496 2.192-.496.832 0 1.563.166 2.192.496.63.331 1.115.803 1.456 1.416.341.614.512 1.336.512 2.168 0 .832-.17 1.555-.512 2.168a3.534 3.534 0 0 1-1.456 1.424c-.63.336-1.36.504-2.192.504Zm0-1.84c1.173 0 1.76-.752 1.76-2.256 0-.757-.152-1.322-.456-1.696-.304-.373-.739-.56-1.304-.56-1.173 0-1.76.752-1.76 2.256 0 1.504.587 2.256 1.76 2.256ZM53.57 9.623l-1.36.144c-.672.064-1.147.254-1.424.568-.278.315-.416.734-.416 1.256v4.096h-2.416V7.831h2.32V9.16c.394-.906 1.21-1.402 2.448-1.488l.704-.048.144 2Zm7.02-1.776h2.368l-4.736 10.72h-2.448l1.504-3.312-3.232-7.408h2.512l1.984 4.992 2.048-4.992Zm7.968-.208c.682 0 1.285.166 1.808.496.522.331.93.803 1.224 1.416.293.614.44 1.326.44 2.136 0 .811-.147 1.528-.44 2.152-.294.624-.704 1.11-1.232 1.456a3.206 3.206 0 0 1-1.8.52 3.122 3.122 0 0 1-1.472-.344 2.447 2.447 0 0 1-1.008-.952v1.168h-2.384V4.407h2.416v4.48a2.387 2.387 0 0 1 1-.92 3.16 3.16 0 0 1 1.448-.328Zm-.704 6.336c.565 0 1.002-.2 1.312-.6.31-.4.464-.962.464-1.688 0-.714-.155-1.26-.464-1.64-.31-.378-.747-.568-1.312-.568-.566 0-1.003.195-1.312.584-.31.39-.464.942-.464 1.656 0 .726.154 1.283.464 1.672.31.39.746.584 1.312.584Zm9.424 1.84c-.832 0-1.563-.168-2.192-.504a3.535 3.535 0 0 1-1.456-1.424c-.342-.613-.512-1.336-.512-2.168 0-.832.17-1.554.512-2.168a3.484 3.484 0 0 1 1.456-1.416c.63-.33 1.36-.496 2.192-.496.832 0 1.562.166 2.192.496.63.331 1.114.803 1.456 1.416.341.614.512 1.336.512 2.168 0 .832-.17 1.555-.512 2.168a3.535 3.535 0 0 1-1.456 1.424c-.63.336-1.36.504-2.192.504Zm0-1.84c1.173 0 1.76-.752 1.76-2.256 0-.757-.152-1.322-.456-1.696-.304-.373-.739-.56-1.304-.56-1.174 0-1.76.752-1.76 2.256 0 1.504.586 2.256 1.76 2.256Zm9.008 1.84c-.832 0-1.563-.168-2.192-.504a3.535 3.535 0 0 1-1.456-1.424c-.342-.613-.512-1.336-.512-2.168 0-.832.17-1.554.512-2.168a3.484 3.484 0 0 1 1.456-1.416c.63-.33 1.36-.496 2.192-.496.832 0 1.562.166 2.192.496.63.331 1.114.803 1.456 1.416.341.614.512 1.336.512 2.168 0 .832-.17 1.555-.512 2.168a3.535 3.535 0 0 1-1.456 1.424c-.63.336-1.36.504-2.192.504Zm0-1.84c1.173 0 1.76-.752 1.76-2.256 0-.757-.152-1.322-.456-1.696-.304-.373-.739-.56-1.304-.56-1.174 0-1.76.752-1.76 2.256 0 1.504.586 2.256 1.76 2.256Zm13.716 1.712h-2.96l-3.008-3.504v3.504h-2.416V4.407h2.416v6.784l2.896-3.344h2.88l-3.296 3.744 3.488 4.096Z" clip-rule="evenodd"/><mask id="b" width="17" height="20" x="0" y="0" maskUnits="userSpaceOnUse" style="mask-type:alpha"><path fill="#fff" d="M.62 18.43 0 1.92A1.006 1.006 0 0 1 .944.88L14.984.002a1.006 1.006 0 0 1 1.069 1.004v17.988A1.006 1.006 0 0 1 15.003 20L1.58 19.396a1.006 1.006 0 0 1-.96-.967Z"/></mask><g mask="url(#b)"><path fill="#FF4785" d="M.62 18.43 0 1.92A1.006 1.006 0 0 1 .944.88L14.984.002a1.006 1.006 0 0 1 1.069 1.004v17.988A1.006 1.006 0 0 1 15.003 20L1.58 19.396a1.006 1.006 0 0 1-.96-.967Z"/><path fill="#fff" d="m11.852 2.458.096-2.306L13.876 0l.083 2.379a.15.15 0 0 1-.243.123l-.743-.586-.88.668a.15.15 0 0 1-.241-.126ZM9.386 7.538c0 .391 2.636.204 2.99-.07 0-2.665-1.43-4.065-4.048-4.065-2.617 0-4.084 1.422-4.084 3.554 0 3.715 5.012 3.786 5.012 5.812 0 .568-.278.906-.89.906-.799 0-1.115-.408-1.077-1.794 0-.3-3.045-.394-3.138 0-.236 3.36 1.857 4.328 4.251 4.328 2.321 0 4.14-1.237 4.14-3.476 0-3.98-5.086-3.874-5.086-5.847 0-.8.594-.906.946-.906.372 0 1.04.065.984 1.558Z"/></g></g><defs><clipPath id="a"><path fill="#fff" d="M0 0h100v20H0z"/></clipPath></defs></svg>
